src/images/figma.inline.svg

<svg width="108" height="160" viewBox="0 0 108 160" fill="none" xmlns="http://www.w3.org/2000/svg">
<g style="mix-blend-mode:soft-light" opacity="0.2">
<path fill-rule="evenodd" clip-rule="evenodd" d="M96 40C96 53.2548 85.2548 64 72 64H48L48 88L48 112V136C48 149.255 37.2548 160 24 160C10.7452 160 0 149.255 0 136C0 122.745 10.7452 112 24 112C10.7452 112 0 101.255 0 88C0 74.7452 10.7452 64 24 64C10.7452 64 0 53.2548 0 40C0 26.7452 10.7452 16 24 16L48 16L72 16C85.2548 16 96 26.7452 96 40ZM48 88C48 74.7452 58.7452 64 72 64C85.2548 64 96 74.7452 96 88C96 101.255 85.2548 112 72 112C58.7452 112 48 101.255 48 88Z" fill="#2A3C51"/>
</g>
<g style="mix-blend-mode:soft-light" opacity="0.4">
<path fill-rule="evenodd" clip-rule="evenodd" d="M104 28C104 41.2548 93.2548 52 80 52H56L56 76L56 100V124C56 137.255 45.2548 148 32 148C18.7452 148 8 137.255 8 124C8 110.745 18.7452 100 32 100C18.7452 100 8 89.2548 8 76C8 62.7452 18.7452 52 32 52C18.7452 52 8 41.2548 8 28C8 14.7452 18.7452 4 32 4L56 4L80 4C93.2548 4 104 14.7452 104 28ZM56 76C56 62.7452 66.7452 52 80 52C93.2548 52 104 62.7452 104 76C104 89.2548 93.2548 100 80 100C66.7452 100 56 89.2548 56 76Z" fill="#2A3C51"/>
</g>
<path d="M12 24C12 10.7452 22.7452 0 36 0L60 0L60 48L36 48C22.7452 48 12 37.2548 12 24Z" fill="#DC77A8"/>
<path d="M12 72C12 58.7452 22.7452 48 36 48L60 48L60 96H36C22.7452 96 12 85.2548 12 72Z" fill="#58375B"/>
<path d="M12 120C12 106.745 22.7452 96 36 96H60V120C60 133.255 49.2548 144 36 144C22.7452 144 12 133.255 12 120Z" fill="#829994"/>
<path d="M108 24C108 37.2548 97.2548 48 84 48L60 48L60 -4.19629e-06L84 -2.09815e-06C97.2548 -9.39372e-07 108 10.7452 108 24Z" fill="#F49FBC"/>
<rect x="108" y="96" width="48" height="48" rx="24" transform="rotate(-180 108 96)" fill="#7DB8CA"/>
</svg>

<svg xmlns="http://www.w3.org/2000/svg" width="108" height="160" fill="none" color-interpolation-filters="sRGB">
  <g class="fill-shadow">
    <path fill="#2A3C51" fill-rule="evenodd" d="M96 40c0 13.255-10.745 24-24 24H48v72c0 13.255-10.745 24-24 24S0 149.255 0 136s10.745-24 24-24c-13.255 0-24-10.745-24-24s10.745-24 24-24C10.745 64 0 53.255 0 40s10.745-24 24-24h48c13.255 0 24 10.745 24 24zM48 88c0-13.255 10.745-24 24-24s24 10.745 24 24-10.745 24-24 24-24-10.745-24-24z" clip-rule="evenodd"  class="opacity-20"/>
    <path fill="#2A3C51" fill-rule="evenodd" d="M104 28c0 13.255-10.745 24-24 24H56v72c0 13.255-10.745 24-24 24S8 137.255 8 124s10.745-24 24-24C18.745 100 8 89.255 8 76s10.745-24 24-24C18.745 52 8 41.255 8 28S18.745 4 32 4h48c13.255 0 24 10.745 24 24zM56 76c0-13.255 10.745-24 24-24s24 10.745 24 24-10.745 24-24 24-24-10.745-24-24z" clip-rule="evenodd"  class="opacity-40"/>
  </g>
  <path fill="#DC77A8" d="M12 24C12 10.745 22.745 0 36 0h24v48H36c-13.255 0-24-10.745-24-24z"/>
  <path fill="#58375B" d="M12 72c0-13.255 10.745-24 24-24h24v48H36c-13.255 0-24-10.745-24-24z"/>
  <path fill="#829994" d="M12 120c0-13.255 10.745-24 24-24h24v24c0 13.255-10.745 24-24 24s-24-10.745-24-24z"/>
  <path fill="#F49FBC" d="M108 24c0 13.255-10.745 24-24 24H60V0h24c13.255 0 24 10.745 24 24z"/>
  <rect width="48" height="48" x="108" y="96" fill="#7DB8CA" rx="24" transform="rotate(-180 108 96)"/>
</svg>
